file/salesforce.svg

<svg clip-rule="evenodd" fill-rule="evenodd" stroke-linejoin="round" stroke-miterlimit="1.41421" viewBox="0 0 560 400" xmlns="http://www.w3.org/2000/svg"><g transform="matrix(1.04987 0 0 1.04987 137.132 99.4751)"><path d="m113.258 21.277c8.777-9.144 20.998-14.818 34.513-14.818 17.965 0 33.641 10.018 41.986 24.892 7.467-3.336 15.555-5.056 23.733-5.046 32.404 0 58.674 26.499 58.674 59.189s-26.27 59.19-58.674 59.19c-3.957 0-7.821-.398-11.559-1.152-7.349 13.109-21.359 21.968-37.435 21.968-6.502.009-12.921-1.468-18.765-4.319-7.45 17.529-24.814 29.819-45.045 29.819-21.073 0-39.033-13.332-45.922-32.03-3.07.648-6.2.974-9.338.972-25.089 0-45.426-20.55-45.426-45.899 0-16.99 9.136-31.823 22.715-39.758-2.877-6.625-4.357-13.772-4.349-20.994 0-29.155 23.667-52.791 52.861-52.791 17.14 0 32.373 8.148 42.031 20.777" fill="#00a1e0"/><g fill="#fffffe"><path d="m39.42 99.289c-.171.446.061.539.116.618.511.37 1.03.638 1.554.939 2.775 1.469 5.398 1.9 8.138 1.9 5.583 0 9.051-2.968 9.051-7.748v-.094c0-4.42-3.915-6.026-7.584-7.185l-.479-.155c-2.767-.898-5.155-1.675-5.155-3.498v-.093c0-1.561 1.396-2.708 3.559-2.708 2.405 0 5.255.799 7.093 1.814 0 0 .542.35.739-.173.107-.283 1.036-2.785 1.135-3.056.106-.293-.08-.514-.271-.628-2.099-1.279-4.998-2.149-7.999-2.149l-.557.002c-5.11 0-8.678 3.09-8.678 7.512v.095c0 4.66 3.936 6.175 7.623 7.228l.592.184c2.685.824 5.004 1.536 5.004 3.425v.094c0 1.73-1.507 3.015-3.934 3.015-.941 0-3.945-.016-7.191-2.069-.393-.229-.617-.394-.92-.579-.16-.097-.56-.272-.734.252zm81.73 0c-.171.446.061.539.118.618.509.37 1.029.638 1.552.939 2.776 1.469 5.399 1.9 8.138 1.9 5.583 0 9.052-2.968 9.052-7.748v-.094c0-4.42-3.914-6.026-7.584-7.185l-.479-.155c-2.767-.898-5.156-1.675-5.156-3.498v-.093c0-1.561 1.397-2.708 3.561-2.708 2.404 0 5.253.799 7.091 1.814 0 0 .542.35.74-.173.106-.283 1.036-2.785 1.134-3.056.107-.293-.08-.514-.27-.628-2.1-1.279-4.998-2.149-7.999-2.149l-.558.002c-5.109 0-8.677 3.09-8.677 7.512v.095c0 4.66 3.935 6.175 7.623 7.228l.591.184c2.686.824 5.005 1.536 5.005 3.425v.094c0 1.73-1.508 3.015-3.933 3.015-.943 0-3.947-.016-7.192-2.069-.393-.229-.623-.387-.921-.579-.101-.064-.572-.248-.733.252zm55.795-9.364c0 2.7-.504 4.832-1.494 6.335-.984 1.49-2.469 2.215-4.54 2.215s-3.548-.724-4.516-2.213c-.977-1.504-1.473-3.637-1.473-6.337 0-2.698.496-4.823 1.473-6.311.968-1.475 2.445-2.191 4.516-2.191s3.556.717 4.54 2.192c.992 1.487 1.494 3.612 1.494 6.31m4.662-5.007c-.459-1.549-1.172-2.912-2.121-4.049-.951-1.14-2.154-2.057-3.58-2.721-1.424-.665-3.104-1.002-4.995-1.002s-3.572.337-4.997 1.002c-1.424.664-2.628 1.581-3.579 2.723-.948 1.139-1.663 2.5-2.12 4.047-.455 1.537-.686 3.222-.686 5.007 0 1.786.231 3.472.686 5.007.457 1.546 1.17 2.908 2.121 4.049.951 1.142 2.158 2.051 3.58 2.699 1.426.648 3.106.978 4.995.978 1.89 0 3.568-.33 4.993-.978 1.424-.648 2.629-1.557 3.582-2.699.949-1.137 1.662-2.501 2.121-4.049.454-1.538.685-3.223.685-5.007 0-1.783-.231-3.469-.685-5.007m38.267 12.834c-.153-.453-.595-.282-.595-.282-.677.259-1.397.499-2.167.619-.776.122-1.635.183-2.554.183-2.253 0-4.048-.671-5.329-1.997-1.287-1.327-2.01-3.471-2.002-6.371.007-2.636.645-4.622 1.789-6.136 1.134-1.504 2.866-2.276 5.169-2.276 1.923 0 3.39.223 4.927.705 0 0 .365.159.54-.322.409-1.133.711-1.939 1.147-3.184.124-.355-.18-.505-.291-.548-.604-.236-2.031-.623-3.108-.786-1.007-.154-2.184-.234-3.497-.234-1.957 0-3.702.335-5.194.999-1.489.663-2.752 1.579-3.753 2.718-1.001 1.141-1.763 2.504-2.267 4.05-.505 1.538-.76 3.226-.76 5.016 0 3.865 1.043 6.988 3.1 9.276 2.064 2.296 5.16 3.462 9.201 3.462 2.387 0 4.836-.483 6.6-1.177 0 0 .336-.162.19-.554zm8.154-10.416c.223-1.501.634-2.748 1.275-3.722.967-1.475 2.439-2.288 4.51-2.288 2.072 0 3.437.814 4.421 2.289.65.975.934 2.274 1.045 3.723zm15.689-3.297c-.397-1.494-1.375-3.003-2.018-3.693-1.015-1.094-2.009-1.86-2.996-2.283-1.428-.607-2.965-.919-4.517-.917-1.969 0-3.758.333-5.209 1.013-1.453.682-2.674 1.614-3.631 2.772-.959 1.157-1.678 2.534-2.137 4.096-.46 1.553-.692 3.246-.692 5.034 0 1.818.241 3.513.715 5.037.479 1.537 1.248 2.886 2.286 4.009 1.037 1.127 2.372 2.011 3.967 2.627 1.587.615 3.515.934 5.726.927 4.558-.015 6.955-1.031 7.945-1.578.175-.098.34-.267.134-.754l-1.032-2.888c-.158-.431-.594-.275-.594-.275-1.131.422-2.732 1.175-6.476 1.167-2.446-.004-4.258-.727-5.397-1.856-1.165-1.155-1.737-2.851-1.834-5.247l15.772.012s.416-.004.459-.41c.017-.168.541-3.24-.471-6.793zm-142.028 3.297c.223-1.501.635-2.748 1.275-3.722.968-1.475 2.438-2.288 4.511-2.288 2.072 0 3.437.814 4.421 2.289.649.975.933 2.274 1.044 3.723zm15.689-3.297c-.396-1.494-1.375-3.003-2.017-3.693-1.015-1.094-2.008-1.86-2.996-2.283-1.428-.607-2.965-.919-4.517-.917-1.969 0-3.758.333-5.209 1.013-1.453.682-2.674 1.614-3.633 2.772-.957 1.157-1.676 2.534-2.137 4.096-.459 1.553-.69 3.246-.69 5.034 0 1.818.239 3.513.716 5.037.478 1.537 1.248 2.886 2.284 4.009 1.038 1.127 2.372 2.011 3.967 2.627 1.588.615 3.514.934 5.727.927 4.557-.015 6.955-1.031 7.945-1.578.174-.098.34-.267.133-.754l-1.031-2.888c-.159-.431-.595-.275-.595-.275-1.13.422-2.731 1.175-6.476 1.167-2.445-.004-4.258-.727-5.397-1.856-1.164-1.155-1.737-2.851-1.834-5.247l15.773.012s.416-.004.459-.41c.017-.168.541-3.24-.472-6.793zm-49.786 13.627c-.619-.494-.705-.615-.91-.936-.313-.483-.473-1.171-.473-2.052 0-1.385.46-2.383 1.408-3.053-.01.002 1.36-1.182 4.575-1.14 1.434.025 2.865.147 4.283.365v7.17h.002s-2.005.431-4.262.567c-3.208.193-4.633-.924-4.623-.921zm6.277-11.086c-.64-.047-1.469-.07-2.463-.07-1.351 0-2.658.168-3.885.498-1.232.332-2.34.846-3.293 1.527-.952.68-1.736 1.571-2.289 2.602-.559 1.041-.844 2.264-.844 3.635 0 1.399.243 2.611.723 3.601.47.982 1.177 1.831 2.057 2.47.877.638 1.959 1.106 3.214 1.392 1.239.283 2.643.426 4.177.426 1.62 0 3.231-.136 4.792-.399 1.33-.229 2.654-.486 3.973-.772.526-.121 1.106-.28 1.106-.28.39-.099.36-.516.36-.516l-.009-14.426c0-3.164-.844-5.508-2.507-6.964-1.655-1.449-4.092-2.181-7.245-2.181-1.184 0-3.086.16-4.228.389 0 0-3.444.668-4.862 1.779 0 0-.312.192-.142.627l1.117 3c.139.389.518.256.518.256s.119-.047.259-.13c3.034-1.65 6.873-1.601 6.873-1.601 1.704 0 3.017.345 3.899 1.02.861.661 1.298 1.656 1.298 3.759v.667c-1.353-.196-2.599-.309-2.599-.309zm127.235-8.127c.023-.054.035-.111.035-.169 0-.176-.108-.335-.272-.399-.269-.102-1.61-.385-2.644-.449-1.983-.124-3.082.21-4.068.654-.978.441-2.061 1.154-2.665 1.967l-.002-1.924c0-.264-.187-.477-.453-.477h-4.044c-.262 0-.452.213-.452.477v23.532c.001.263.216.478.479.479h4.145c.262-.001.478-.217.478-.479v-11.755c0-1.579.174-3.152.521-4.141.342-.979.807-1.759 1.383-2.32.546-.541 1.214-.943 1.948-1.172.688-.197 1.4-.298 2.116-.298.825 0 1.733.212 1.733.212.304.034.473-.152.576-.426.271-.721 1.039-2.882 1.186-3.312"/><path d="m162.201 67.548c-.512-.155-1.032-.278-1.559-.37-.708-.118-1.426-.174-2.144-.166-2.853 0-5.102.806-6.681 2.398-1.568 1.58-2.635 3.987-3.17 7.154l-.193 1.069h-3.581s-.437-.018-.529.459l-.588 3.28c-.041.314.094.51.514.508h3.486l-3.537 19.743c-.277 1.59-.594 2.898-.945 3.889-.346.978-.684 1.711-1.1 2.243-.403.515-.785.894-1.444 1.115-.544.183-1.17.267-1.856.267-.382 0-.89-.064-1.265-.139-.375-.074-.57-.158-.851-.276 0 0-.409-.156-.57.254-.131.335-1.06 2.89-1.17 3.206-.112.312.045.558.243.629.464.166.809.272 1.441.421.878.207 1.618.22 2.311.22 1.452 0 2.775-.204 3.872-.6 1.104-.399 2.065-1.094 2.915-2.035.919-1.015 1.497-2.078 2.05-3.528.547-1.437 1.013-3.221 1.386-5.3l3.554-20.109h5.196s.438.016.529-.459l.588-3.28c.041-.314-.093-.51-.515-.508h-5.043c.025-.114.254-1.888.833-3.558.247-.713.712-1.288 1.106-1.683.368-.376.821-.658 1.321-.822.548-.169 1.119-.252 1.693-.244.475 0 .941.057 1.296.131.489.104.679.159.807.197.514.157.583.005.684-.244l1.206-3.312c.124-.356-.178-.506-.29-.55m-70.474 34.117c0 .264-.188.479-.452.479h-4.183c-.265 0-.453-.215-.453-.479v-33.668c0-.263.188-.476.453-.476h4.183c.264 0 .452.213.452.476z"/></g></g></svg>

<?xml version="1.0" encoding="UTF-8" standalone="no"?>
<!DOCTYPE svg PUBLIC "-//W3C//DTD SVG 1.1//EN" "http://www.w3.org/Graphics/SVG/1.1/DTD/svg11.dtd">
<svg width="100%" height="100%" viewBox="0 0 560 400" version="1.1" xmlns="http://www.w3.org/2000/svg" xmlns:xlink="http://www.w3.org/1999/xlink" xml:space="preserve" xmlns:serif="http://www.serif.com/" style="fill-rule:evenodd;clip-rule:evenodd;stroke-linejoin:round;stroke-miterlimit:1.41421;">
    <g transform="matrix(1.04987,0,0,1.04987,137.132,99.4751)">
        <path d="M113.258,21.277C122.035,12.133 134.256,6.459 147.771,6.459C165.736,6.459 181.412,16.477 189.757,31.351C197.224,28.015 205.312,26.295 213.49,26.305C245.894,26.305 272.164,52.804 272.164,85.494C272.164,118.184 245.894,144.684 213.49,144.684C209.533,144.684 205.669,144.286 201.931,143.532C194.582,156.641 180.572,165.5 164.496,165.5C157.994,165.509 151.575,164.032 145.731,161.181C138.281,178.71 120.917,191 100.686,191C79.613,191 61.653,177.668 54.764,158.97C51.694,159.618 48.564,159.944 45.426,159.942C20.337,159.942 0,139.392 0,114.043C0,97.053 9.136,82.22 22.715,74.285C19.838,67.66 18.358,60.513 18.366,53.291C18.366,24.136 42.033,0.5 71.227,0.5C88.367,0.5 103.6,8.648 113.258,21.277" style="fill:rgb(0,161,224);"/>
        <path d="M39.42,99.289C39.249,99.735 39.481,99.828 39.536,99.907C40.047,100.277 40.566,100.545 41.09,100.846C43.865,102.315 46.488,102.746 49.228,102.746C54.811,102.746 58.279,99.778 58.279,94.998L58.279,94.904C58.279,90.484 54.364,88.878 50.695,87.719L50.216,87.564C47.449,86.666 45.061,85.889 45.061,84.066L45.061,83.973C45.061,82.412 46.457,81.265 48.62,81.265C51.025,81.265 53.875,82.064 55.713,83.079C55.713,83.079 56.255,83.429 56.452,82.906C56.559,82.623 57.488,80.121 57.587,79.85C57.693,79.557 57.507,79.336 57.316,79.222C55.217,77.943 52.318,77.073 49.317,77.073L48.76,77.075C43.65,77.075 40.082,80.165 40.082,84.587L40.082,84.682C40.082,89.342 44.018,90.857 47.705,91.91L48.297,92.094C50.982,92.918 53.301,93.63 53.301,95.519L53.301,95.613C53.301,97.343 51.794,98.628 49.367,98.628C48.426,98.628 45.422,98.612 42.176,96.559C41.783,96.33 41.559,96.165 41.256,95.98C41.096,95.883 40.696,95.708 40.522,96.232L39.42,99.289M121.15,99.289C120.979,99.735 121.211,99.828 121.268,99.907C121.777,100.277 122.297,100.545 122.82,100.846C125.596,102.315 128.219,102.746 130.958,102.746C136.541,102.746 140.01,99.778 140.01,94.998L140.01,94.904C140.01,90.484 136.096,88.878 132.426,87.719L131.947,87.564C129.18,86.666 126.791,85.889 126.791,84.066L126.791,83.973C126.791,82.412 128.188,81.265 130.352,81.265C132.756,81.265 135.605,82.064 137.443,83.079C137.443,83.079 137.985,83.429 138.183,82.906C138.289,82.623 139.219,80.121 139.317,79.85C139.424,79.557 139.237,79.336 139.047,79.222C136.947,77.943 134.049,77.073 131.048,77.073L130.49,77.075C125.381,77.075 121.813,80.165 121.813,84.587L121.813,84.682C121.813,89.342 125.748,90.857 129.436,91.91L130.027,92.094C132.713,92.918 135.032,93.63 135.032,95.519L135.032,95.613C135.032,97.343 133.524,98.628 131.099,98.628C130.156,98.628 127.152,98.612 123.907,96.559C123.514,96.33 123.284,96.172 122.986,95.98C122.885,95.916 122.414,95.732 122.253,96.232L121.15,99.289M176.945,89.925C176.945,92.625 176.441,94.757 175.451,96.26C174.467,97.75 172.982,98.475 170.911,98.475C168.84,98.475 167.363,97.751 166.395,96.262C165.418,94.758 164.922,92.625 164.922,89.925C164.922,87.227 165.418,85.102 166.395,83.614C167.363,82.139 168.84,81.423 170.911,81.423C172.982,81.423 174.467,82.14 175.451,83.615C176.443,85.102 176.945,87.227 176.945,89.925M181.607,84.918C181.148,83.369 180.435,82.006 179.486,80.869C178.535,79.729 177.332,78.812 175.906,78.148C174.482,77.483 172.802,77.146 170.911,77.146C169.02,77.146 167.339,77.483 165.914,78.148C164.49,78.812 163.286,79.729 162.335,80.871C161.387,82.01 160.672,83.371 160.215,84.918C159.76,86.455 159.529,88.14 159.529,89.925C159.529,91.711 159.76,93.397 160.215,94.932C160.672,96.478 161.385,97.84 162.336,98.981C163.287,100.123 164.494,101.032 165.916,101.68C167.342,102.328 169.022,102.658 170.911,102.658C172.801,102.658 174.479,102.328 175.904,101.68C177.328,101.032 178.533,100.123 179.486,98.981C180.435,97.844 181.148,96.48 181.607,94.932C182.061,93.394 182.292,91.709 182.292,89.925C182.292,88.142 182.061,86.456 181.607,84.918M219.874,97.752C219.721,97.299 219.279,97.47 219.279,97.47C218.602,97.729 217.882,97.969 217.112,98.089C216.336,98.211 215.477,98.272 214.558,98.272C212.305,98.272 210.51,97.601 209.229,96.275C207.942,94.948 207.219,92.804 207.227,89.904C207.234,87.268 207.872,85.282 209.016,83.768C210.15,82.264 211.882,81.492 214.185,81.492C216.108,81.492 217.575,81.715 219.112,82.197C219.112,82.197 219.477,82.356 219.652,81.875C220.061,80.742 220.363,79.936 220.799,78.691C220.923,78.336 220.619,78.186 220.508,78.143C219.904,77.907 218.477,77.52 217.4,77.357C216.393,77.203 215.216,77.123 213.903,77.123C211.946,77.123 210.201,77.458 208.709,78.122C207.22,78.785 205.957,79.701 204.956,80.84C203.955,81.981 203.193,83.344 202.689,84.89C202.184,86.428 201.929,88.116 201.929,89.906C201.929,93.771 202.972,96.894 205.029,99.182C207.093,101.478 210.189,102.644 214.23,102.644C216.617,102.644 219.066,102.161 220.83,101.467C220.83,101.467 221.166,101.305 221.02,100.913L219.874,97.752M228.028,87.336C228.251,85.835 228.662,84.588 229.303,83.614C230.27,82.139 231.742,81.326 233.813,81.326C235.885,81.326 237.25,82.14 238.234,83.615C238.884,84.59 239.168,85.889 239.279,87.338L228.028,87.336ZM243.717,84.039C243.32,82.545 242.342,81.036 241.699,80.346C240.684,79.252 239.69,78.486 238.703,78.063C237.275,77.456 235.738,77.144 234.186,77.146C232.217,77.146 230.428,77.479 228.977,78.159C227.524,78.841 226.303,79.773 225.346,80.931C224.387,82.088 223.668,83.465 223.209,85.027C222.749,86.58 222.517,88.273 222.517,90.061C222.517,91.879 222.758,93.574 223.232,95.098C223.711,96.635 224.48,97.984 225.518,99.107C226.555,100.234 227.89,101.118 229.485,101.734C231.072,102.349 233,102.668 235.211,102.661C239.769,102.646 242.166,101.63 243.156,101.083C243.331,100.985 243.496,100.816 243.29,100.329L242.258,97.441C242.1,97.01 241.664,97.166 241.664,97.166C240.533,97.588 238.932,98.341 235.188,98.333C232.742,98.329 230.93,97.606 229.791,96.477C228.626,95.322 228.054,93.626 227.957,91.23L243.729,91.242C243.729,91.242 244.145,91.238 244.188,90.832C244.205,90.664 244.729,87.592 243.717,84.039ZM101.689,87.336C101.912,85.835 102.324,84.588 102.964,83.614C103.932,82.139 105.402,81.326 107.475,81.326C109.547,81.326 110.912,82.14 111.896,83.615C112.545,84.59 112.829,85.889 112.94,87.338L101.689,87.336ZM117.378,84.039C116.982,82.545 116.003,81.036 115.361,80.346C114.346,79.252 113.353,78.486 112.365,78.063C110.937,77.456 109.4,77.144 107.848,77.146C105.879,77.146 104.09,77.479 102.639,78.159C101.186,78.841 99.965,79.773 99.006,80.931C98.049,82.088 97.33,83.465 96.869,85.027C96.41,86.58 96.179,88.273 96.179,90.061C96.179,91.879 96.418,93.574 96.895,95.098C97.373,96.635 98.143,97.984 99.179,99.107C100.217,100.234 101.551,101.118 103.146,101.734C104.734,102.349 106.66,102.668 108.873,102.661C113.43,102.646 115.828,101.63 116.818,101.083C116.992,100.985 117.158,100.816 116.951,100.329L115.92,97.441C115.761,97.01 115.325,97.166 115.325,97.166C114.195,97.588 112.594,98.341 108.849,98.333C106.404,98.329 104.591,97.606 103.452,96.477C102.288,95.322 101.715,93.626 101.618,91.23L117.391,91.242C117.391,91.242 117.807,91.238 117.85,90.832C117.867,90.664 118.391,87.592 117.378,84.039ZM67.592,97.666C66.973,97.172 66.887,97.051 66.682,96.73C66.369,96.247 66.209,95.559 66.209,94.678C66.209,93.293 66.669,92.295 67.617,91.625C67.607,91.627 68.977,90.443 72.192,90.485C73.626,90.51 75.057,90.632 76.475,90.85L76.475,98.02L76.477,98.02C76.477,98.02 74.472,98.451 72.215,98.587C69.007,98.78 67.582,97.663 67.592,97.666ZM73.869,86.58C73.229,86.533 72.4,86.51 71.406,86.51C70.055,86.51 68.748,86.678 67.521,87.008C66.289,87.34 65.181,87.854 64.228,88.535C63.276,89.215 62.492,90.106 61.939,91.137C61.38,92.178 61.095,93.401 61.095,94.772C61.095,96.171 61.338,97.383 61.818,98.373C62.288,99.355 62.995,100.204 63.875,100.843C64.752,101.481 65.834,101.949 67.089,102.235C68.328,102.518 69.732,102.661 71.266,102.661C72.886,102.661 74.497,102.525 76.058,102.262C77.388,102.033 78.712,101.776 80.031,101.49C80.557,101.369 81.137,101.21 81.137,101.21C81.527,101.111 81.497,100.694 81.497,100.694L81.488,86.268C81.488,83.104 80.644,80.76 78.981,79.304C77.326,77.855 74.889,77.123 71.736,77.123C70.552,77.123 68.65,77.283 67.508,77.512C67.508,77.512 64.064,78.18 62.646,79.291C62.646,79.291 62.334,79.483 62.504,79.918L63.621,82.918C63.76,83.307 64.139,83.174 64.139,83.174C64.139,83.174 64.258,83.127 64.398,83.044C67.432,81.394 71.271,81.443 71.271,81.443C72.975,81.443 74.288,81.788 75.17,82.463C76.031,83.124 76.468,84.119 76.468,86.222L76.468,86.889C75.115,86.693 73.869,86.58 73.869,86.58ZM201.104,78.453C201.127,78.399 201.139,78.342 201.139,78.284C201.139,78.108 201.031,77.949 200.867,77.885C200.598,77.783 199.257,77.5 198.223,77.436C196.24,77.312 195.141,77.646 194.155,78.09C193.177,78.531 192.094,79.244 191.49,80.057L191.488,78.133C191.488,77.869 191.301,77.656 191.035,77.656L186.991,77.656C186.729,77.656 186.539,77.869 186.539,78.133L186.539,101.665C186.54,101.928 186.755,102.143 187.018,102.144L191.163,102.144C191.425,102.143 191.641,101.927 191.641,101.665L191.641,89.91C191.641,88.331 191.815,86.758 192.162,85.769C192.504,84.79 192.969,84.01 193.545,83.449C194.091,82.908 194.759,82.506 195.493,82.277C196.181,82.08 196.893,81.979 197.609,81.979C198.434,81.979 199.342,82.191 199.342,82.191C199.646,82.225 199.815,82.039 199.918,81.765C200.189,81.044 200.957,78.883 201.104,78.453" style="fill:rgb(255,255,254);"/>
        <path d="M162.201,67.548C161.689,67.393 161.169,67.27 160.642,67.178C159.934,67.06 159.216,67.004 158.498,67.012C155.645,67.012 153.396,67.818 151.817,69.41C150.249,70.99 149.182,73.397 148.647,76.564L148.454,77.633L144.873,77.633C144.873,77.633 144.436,77.615 144.344,78.092L143.756,81.372C143.715,81.686 143.85,81.882 144.27,81.88L147.756,81.88L144.219,101.623C143.942,103.213 143.625,104.521 143.274,105.512C142.928,106.49 142.59,107.223 142.174,107.755C141.771,108.27 141.389,108.649 140.73,108.87C140.186,109.053 139.56,109.137 138.874,109.137C138.492,109.137 137.984,109.073 137.609,108.998C137.234,108.924 137.039,108.84 136.758,108.722C136.758,108.722 136.349,108.566 136.188,108.976C136.057,109.311 135.128,111.866 135.018,112.182C134.906,112.494 135.063,112.74 135.261,112.811C135.725,112.977 136.07,113.083 136.702,113.232C137.58,113.439 138.32,113.452 139.013,113.452C140.465,113.452 141.788,113.248 142.885,112.852C143.989,112.453 144.95,111.758 145.8,110.817C146.719,109.802 147.297,108.739 147.85,107.289C148.397,105.852 148.863,104.068 149.236,101.989L152.79,81.88L157.986,81.88C157.986,81.88 158.424,81.896 158.515,81.421L159.103,78.141C159.144,77.827 159.01,77.631 158.588,77.633L153.545,77.633C153.57,77.519 153.799,75.745 154.378,74.075C154.625,73.362 155.09,72.787 155.484,72.392C155.852,72.016 156.305,71.734 156.805,71.57C157.353,71.401 157.924,71.318 158.498,71.326C158.973,71.326 159.439,71.383 159.794,71.457C160.283,71.561 160.473,71.616 160.601,71.654C161.115,71.811 161.184,71.659 161.285,71.41L162.491,68.098C162.615,67.742 162.313,67.592 162.201,67.548M91.727,101.665C91.727,101.929 91.539,102.144 91.275,102.144L87.092,102.144C86.827,102.144 86.639,101.929 86.639,101.665L86.639,67.997C86.639,67.734 86.827,67.521 87.092,67.521L91.275,67.521C91.539,67.521 91.727,67.734 91.727,67.997L91.727,101.665" style="fill:rgb(255,255,254);"/>
    </g>
</svg>
